!!!OTL: Der Nachtjaeger Es blaset ein Jager wohl in sein Horn
!!!ARE: Europa, Mitteleuropa, Lothringen, Weiler
!!!SCT: D0015
!!!YEM: Copyright 1995, estate of Helmut Schaffrath.
**kern
*ICvox
*Ivox
*M2/4
*k[f#]
*G:
{8d
=1
4g
8f#
8e
=2
4d
8d
8d
=3
4cc
4cc
=4
4.b}
{8b
=5
8b
8a
8cc
8a
=6
4g
8g
8b
=7
4a
8a
8f#
=8
4.g}
{16g
16g
=9
8f#
8a
8a
16a
16a
=10
8g
8b
8dd
8cc
=11
4b
8a
8a
=12
4.g}
==
!!!AGN: Ballade, Zauber
!! Inzipit = entfernte Variante ??
!!!ONB: ESAC (Essen Associative Code) Database: DVA
!!!AMT: simple duple
!!!AIN: vox
!!!EED: Helmut Schaffrath
!!!EEV: 1.0
*-
